Improvs/dist/images/creditor_solutions_template/logo.svg

<svg width="206" height="46" viewBox="0 0 206 46" fill="none" xmlns="http://www.w3.org/2000/svg">
<g clip-path="url(#clip0_1309_148)">
<path d="M11.2139 45.4129C10.405 45.7861 8.98248 45.9731 7.44824 45.9731C2.87338 45.9731 0 43.4112 0 39.2481C0 35.5116 2.70587 32.3092 8.06178 32.3092C9.03818 32.3092 10.2375 32.4424 11.2139 32.7627L10.5167 36.2857C10.0424 36.0986 9.37294 35.9654 8.34083 35.9654C6.47197 35.9654 5.13283 37.193 5.16081 39.088C5.16081 41.2229 6.69492 42.2372 8.48022 42.2372C9.34495 42.2372 10.0424 42.1301 10.6841 41.8899L11.2139 45.4129Z" fill="#1F2E76"/>
<path d="M13.2798 37.0059C13.2798 34.9245 13.2518 33.6703 13.1681 32.5761H17.4642L17.6593 34.9514H17.7709C18.4963 32.9495 20.2256 32.2823 21.4252 32.2823C21.8715 32.2823 22.0669 32.2823 22.4294 32.3624V36.8728C22.0669 36.7927 21.6763 36.7391 21.1462 36.7391C19.6676 36.7391 18.6637 37.3261 18.3846 38.3936C18.3569 38.6076 18.3289 38.901 18.3289 39.2212V45.7063H13.2798V37.0059Z" fill="#1F2E76"/>
<path d="M32.444 37.5667C32.444 36.8192 32.0813 35.4312 30.4913 35.4312C29.0128 35.4312 28.427 36.7391 28.3433 37.5667H32.444ZM28.3993 40.8226C28.5664 41.8634 30.1566 42.4504 31.9419 42.4504C33.2251 42.4504 34.4526 42.3169 35.6798 41.9431L36.3215 45.1462C34.6755 45.7598 32.8902 45.9731 31.1886 45.9731C26.3629 45.9731 23.6289 43.4382 23.6289 39.2748C23.6289 36.2322 25.6933 32.2823 30.7424 32.2823C35.1777 32.2823 37.0747 35.4049 37.0747 39.0075C37.0747 39.7813 36.9629 40.5023 36.8792 40.8226H28.3993Z" fill="#1F2E76"/>
<path d="M48.2083 38.2604C48.2083 38.0734 48.2083 37.8336 48.1805 37.6464C47.9853 36.7126 47.2599 35.9654 46.2001 35.9654C44.526 35.9654 43.7728 37.4066 43.7728 39.1146C43.7728 41.1428 44.8052 42.1837 46.172 42.1837C47.204 42.1837 47.9572 41.4896 48.1246 40.6089C48.2083 40.3422 48.2083 40.0488 48.2083 39.7285V38.2604ZM53.2574 26.7309V41.5697C53.2574 43.1977 53.3133 44.8259 53.3688 45.7063H48.8778L48.6826 43.9448H48.6267C47.7343 45.4129 46.0605 46 44.4982 46C41.3184 46 38.6682 43.3578 38.6682 39.2481C38.6404 34.8175 41.5695 32.2823 44.8052 32.2823C46.3116 32.2823 47.5388 32.7093 48.1524 33.563H48.2083V26.7309H53.2574Z" fill="#1F2E76"/>
<path d="M56.3562 45.7063V32.5761H61.4053V45.7063H56.3562ZM58.8666 31.2149C57.3046 31.2149 56.3281 30.2006 56.3281 28.9461C56.3281 27.6119 57.3324 26.6511 58.8947 26.6511C60.457 26.6511 61.4331 27.6119 61.4609 28.9461C61.4609 30.2006 60.457 31.2149 58.8947 31.2149H58.8666Z" fill="#1F2E76"/>
<path d="M70.0251 28.8396V32.5761H72.8705V36.0986H70.0251V39.8618C70.0251 41.4095 70.388 42.0501 71.6152 42.0501C72.201 42.0501 72.3965 42.0501 72.8149 41.9431V45.5997C72.2291 45.813 71.113 45.9731 69.8299 45.9731C68.3517 45.9731 67.1241 45.4664 66.3987 44.7723C65.5618 43.9714 65.1156 42.6904 65.1156 40.6893V36.0986H63.4141V32.5761H65.1156V30.1207L70.0251 28.8396Z" fill="#1F2E76"/>
<path d="M81.799 42.6105C83.1658 42.6105 83.8912 41.2494 83.8912 39.1415C83.8912 37.3261 83.2776 35.6718 81.799 35.6718C80.1253 35.6718 79.5672 37.4066 79.5672 39.1415C79.5672 41.1163 80.2367 42.6105 81.7709 42.6105H81.799ZM81.6598 46C77.5591 46 74.3789 43.5179 74.3789 39.2481C74.3789 35.0581 77.2521 32.2823 81.9383 32.2823C86.2342 32.2823 89.0796 35.0581 89.0796 39.0075C89.0796 43.7846 85.5091 46 81.6872 46H81.6598Z" fill="#1F2E76"/>
<path d="M91.4791 37.0059C91.4791 34.9245 91.4513 33.6703 91.3673 32.5761H95.6632L95.8587 34.9514H95.9702C96.6956 32.9495 98.4249 32.2823 99.6247 32.2823C100.071 32.2823 100.266 32.2823 100.629 32.3624V36.8728C100.266 36.7927 99.8754 36.7391 99.3458 36.7391C97.8672 36.7391 96.8629 37.3261 96.5841 38.3936C96.5563 38.6076 96.5282 38.901 96.5282 39.2212V45.7063H91.4791V37.0059Z" fill="#1F2E76"/>
<path d="M102.891 43.3042C103.644 43.7315 104.927 44.2119 106.154 44.2119C107.912 44.2119 108.748 43.3843 108.748 42.2903C108.748 41.1693 108.051 40.5824 106.266 39.9414C103.811 39.088 102.668 37.8065 102.668 36.2856C102.668 34.2035 104.453 32.4956 107.326 32.4956C108.693 32.4956 109.892 32.8428 110.618 33.2963L110.032 34.9777C109.502 34.6839 108.526 34.2306 107.27 34.2306C105.82 34.2306 105.039 35.0312 105.039 35.992C105.039 37.0594 105.82 37.5398 107.577 38.2073C109.892 39.0342 111.12 40.1555 111.12 42.0771C111.12 44.372 109.251 45.9731 106.099 45.9731C104.62 45.9731 103.253 45.5997 102.305 45.0657L102.891 43.3042Z" fill="#7B7979"/>
<path d="M119.88 44.2382C122.223 44.2382 123.981 42.1301 123.981 39.1943C123.981 37.0059 122.837 34.2575 119.936 34.2575C117.063 34.2575 115.808 36.8192 115.808 39.2748C115.808 42.1032 117.481 44.2382 119.852 44.2382H119.88ZM119.769 46C116.142 46 113.297 43.4382 113.297 39.3548C113.297 35.0312 116.282 32.4956 119.992 32.4956C123.869 32.4956 126.491 35.1914 126.491 39.1146C126.491 43.9186 123.005 46 119.796 46H119.769Z" fill="#7B7979"/>
<path d="M129.59 26.7577H132.045V45.7063H129.59V26.7577Z" fill="#7B7979"/>
<path d="M147.471 42.1568C147.471 43.5179 147.499 44.6923 147.583 45.7063H145.407L145.267 43.5984H145.212C144.598 44.6389 143.147 46 140.748 46C138.628 46 136.09 44.8522 136.09 40.3422V32.7894H138.545V39.9153C138.545 42.3701 139.354 44.0517 141.557 44.0517C143.203 44.0517 144.347 42.9575 144.793 41.8899C144.932 41.5697 145.016 41.1428 145.016 40.6893V32.7894H147.471V42.1568Z" fill="#7B7979"/>
<path d="M154.502 29.6934V32.7894H158.018V34.5777H154.502V41.5163C154.502 43.118 154.977 44.0252 156.344 44.0252C157.013 44.0252 157.404 43.9714 157.766 43.8651L157.878 45.6528C157.404 45.813 156.651 45.9731 155.702 45.9731C154.558 45.9731 153.638 45.5997 153.052 44.986C152.382 44.265 152.104 43.118 152.104 41.5967V34.5777H150.012V32.7894H152.104V30.4143L154.502 29.6934Z" fill="#7B7979"/>
<path d="M160.779 45.7063V32.7894H163.234V45.7063H160.779ZM161.951 30.6011C161.059 30.6011 160.473 29.9339 160.473 29.1598C160.473 28.3324 161.087 27.6919 162.007 27.6919C162.899 27.6919 163.514 28.3324 163.514 29.1598C163.514 29.9339 162.927 30.6011 161.979 30.6011H161.951Z" fill="#7B7979"/>
<path d="M172.916 44.2382C175.259 44.2382 177.016 42.1301 177.016 39.1943C177.016 37.0059 175.873 34.2575 172.972 34.2575C170.098 34.2575 168.843 36.8192 168.843 39.2748C168.843 42.1032 170.517 44.2382 172.888 44.2382H172.916ZM172.804 46C169.178 46 166.332 43.4382 166.332 39.3548C166.332 35.0312 169.317 32.4956 173.027 32.4956C176.905 32.4956 179.527 35.1914 179.527 39.1146C179.527 43.9186 176.04 46 172.832 46H172.804Z" fill="#7B7979"/>
<path d="M182.623 36.2856C182.623 34.9245 182.595 33.8571 182.512 32.7894H184.688L184.827 34.898H184.883C185.552 33.697 187.115 32.4956 189.346 32.4956C191.215 32.4956 194.116 33.563 194.116 37.9937V45.7063H191.662V38.2604C191.662 36.1791 190.852 34.4176 188.537 34.4176C186.947 34.4176 185.692 35.5116 185.245 36.8192C185.134 37.113 185.078 37.5398 185.078 37.9132V45.7063H182.623V36.2856Z" fill="#7B7979"/>
<path d="M197.773 43.3042C198.527 43.7315 199.81 44.2119 201.037 44.2119C202.795 44.2119 203.631 43.3843 203.631 42.2903C203.631 41.1693 202.934 40.5824 201.149 39.9414C198.694 39.088 197.55 37.8065 197.55 36.2856C197.55 34.2035 199.335 32.4956 202.208 32.4956C203.576 32.4956 204.775 32.8428 205.5 33.2963L204.915 34.9777C204.384 34.6839 203.408 34.2306 202.153 34.2306C200.702 34.2306 199.921 35.0312 199.921 35.992C199.921 37.0594 200.702 37.5398 202.46 38.2073C204.775 39.0342 206.003 40.1555 206.003 42.0771C206.003 44.372 204.133 45.9731 200.981 45.9731C199.503 45.9731 198.136 45.5997 197.188 45.0657L197.773 43.3042Z" fill="#7B7979"/>
<path d="M96.0279 24.5297C92.7202 24.5297 89.609 23.2959 87.2674 21.056C84.9262 18.8159 83.6367 15.8393 83.6367 12.6746C83.6367 9.51034 84.9262 6.53377 87.2674 4.2935L90.9173 0.801947C92.035 -0.267107 93.8473 -0.267107 94.9651 0.801947C96.0828 1.87132 96.0828 3.60525 94.9651 4.67462L91.3153 8.16618C90.0553 9.37198 89.361 10.973 89.361 12.6746C89.361 14.3766 90.0553 15.9777 91.3153 17.1833C92.5756 18.3891 94.249 19.0531 96.0279 19.0531C97.8065 19.0531 99.4799 18.3891 100.74 17.1833L108.082 10.1589C109.2 9.08951 111.012 9.08951 112.13 10.1589C113.248 11.2283 113.248 12.9622 112.13 14.0316L104.788 21.056C102.446 23.2959 99.3356 24.5297 96.0279 24.5297Z" fill="#1F2E76"/>
<path d="M113.07 24.8875C112.338 24.8875 111.605 24.6201 111.046 24.0856C109.929 23.0162 109.929 21.2822 111.046 20.2128L114.696 16.7213C117.295 14.2352 117.295 10.1899 114.696 7.70403C112.098 5.2178 107.87 5.21812 105.271 7.70403L97.9291 14.7285C96.8114 15.7979 94.999 15.7979 93.8813 14.7285C92.7635 13.6591 92.7635 11.9252 93.8813 10.8558L101.223 3.83168C106.054 -0.789459 113.914 -0.78978 118.744 3.83168C123.574 8.45282 123.574 15.9724 118.744 20.5939L115.094 24.0856C114.535 24.6201 113.803 24.8875 113.07 24.8875Z" fill="#7B7979"/>
</g>
<defs>
<clipPath id="clip0_1309_148">
<rect width="206" height="46" fill="white"/>
</clipPath>
</defs>
</svg>

<svg width="206" height="46" fill="none" xmlns="http://www.w3.org/2000/svg"><g clip-path="url(#clip0_1309_148)"><path d="M11.214 45.413c-.809.373-2.232.56-3.766.56C2.873 45.973 0 43.411 0 39.248c0-3.736 2.706-6.939 8.062-6.939.976 0 2.176.133 3.152.454l-.697 3.523c-.475-.187-1.144-.32-2.176-.32-1.869 0-3.208 1.227-3.18 3.122 0 2.135 1.534 3.15 3.32 3.15.864 0 1.561-.108 2.203-.348l.53 3.523zm2.066-8.407c0-2.081-.028-3.336-.112-4.43h4.296l.195 2.375h.112c.725-2.002 2.455-2.669 3.654-2.669.447 0 .642 0 1.004.08v4.51a5.688 5.688 0 00-1.283-.133c-1.478 0-2.482.587-2.761 1.655a6.544 6.544 0 00-.056.827v6.485h-5.05v-8.7zm19.164.561c0-.748-.363-2.136-1.953-2.136-1.478 0-2.064 1.308-2.148 2.136h4.101zm-4.045 3.256c.167 1.04 1.758 1.627 3.543 1.627 1.283 0 2.51-.133 3.738-.507l.642 3.203c-1.647.614-3.432.827-5.133.827-4.826 0-7.56-2.535-7.56-6.698 0-3.043 2.064-6.993 7.113-6.993 4.436 0 6.333 3.123 6.333 6.726 0 .773-.112 1.494-.196 1.815H28.4zm19.809-2.563c0-.187 0-.426-.027-.614-.196-.933-.921-1.68-1.98-1.68-1.675 0-2.428 1.44-2.428 3.149 0 2.028 1.032 3.069 2.399 3.069 1.032 0 1.785-.694 1.953-1.575.083-.267.083-.56.083-.88V38.26zm5.05-11.53v14.84c0 1.628.055 3.256.11 4.136h-4.49l-.195-1.761h-.056C47.734 45.413 46.06 46 44.498 46c-3.18 0-5.83-2.642-5.83-6.752-.028-4.43 2.901-6.966 6.137-6.966 1.507 0 2.734.427 3.347 1.281h.056v-6.832h5.05zm3.098 18.976v-13.13h5.05v13.13h-5.05zm2.51-14.491c-1.561 0-2.538-1.014-2.538-2.269 0-1.334 1.004-2.295 2.567-2.295 1.562 0 2.538.96 2.566 2.295 0 1.255-1.004 2.269-2.566 2.269h-.028zm11.159-2.375v3.736h2.846V36.1h-2.846v3.763c0 1.547.363 2.188 1.59 2.188.586 0 .782 0 1.2-.107V45.6c-.586.213-1.702.373-2.985.373-1.478 0-2.706-.507-3.431-1.2-.837-.802-1.283-2.083-1.283-4.084V36.1h-1.702v-3.523h1.702v-2.455l4.91-1.281zm11.774 13.77c1.367 0 2.092-1.36 2.092-3.468 0-1.816-.613-3.47-2.092-3.47-1.674 0-2.232 1.735-2.232 3.47 0 1.974.67 3.468 2.204 3.468h.028zm-.14 3.39c-4.1 0-7.28-2.482-7.28-6.752 0-4.19 2.873-6.966 7.56-6.966 4.295 0 7.14 2.776 7.14 6.726 0 4.777-3.57 6.992-7.392 6.992h-.027zm9.821-8.994c0-2.081-.029-3.336-.113-4.43h4.296l.196 2.375h.111c.726-2.002 2.455-2.669 3.655-2.669.446 0 .641 0 1.004.08v4.51a5.694 5.694 0 00-1.283-.133c-1.479 0-2.483.587-2.762 1.655a6.521 6.521 0 00-.056.827v6.485H91.48v-8.7z" fill="#1F2E76"/><path d="M102.891 43.304c.753.427 2.036.908 3.263.908 1.758 0 2.594-.828 2.594-1.922 0-1.12-.697-1.708-2.482-2.349-2.455-.853-3.598-2.135-3.598-3.655 0-2.083 1.785-3.79 4.658-3.79 1.367 0 2.566.347 3.292.8l-.586 1.682c-.53-.294-1.506-.747-2.762-.747-1.45 0-2.231.8-2.231 1.761 0 1.067.781 1.548 2.538 2.215 2.315.827 3.543 1.949 3.543 3.87 0 2.295-1.869 3.896-5.021 3.896-1.479 0-2.846-.373-3.794-.907l.586-1.762zm16.989.934c2.343 0 4.101-2.108 4.101-5.044 0-2.188-1.144-4.937-4.045-4.937-2.873 0-4.128 2.562-4.128 5.018 0 2.828 1.673 4.963 4.044 4.963h.028zM119.769 46c-3.627 0-6.472-2.562-6.472-6.645 0-4.324 2.985-6.86 6.695-6.86 3.877 0 6.499 2.696 6.499 6.62 0 4.804-3.486 6.885-6.695 6.885h-.027zm9.821-19.242h2.455v18.948h-2.455V26.758zm17.881 15.399c0 1.36.028 2.535.112 3.55h-2.176l-.14-2.109h-.055c-.614 1.04-2.065 2.402-4.464 2.402-2.12 0-4.658-1.148-4.658-5.658V32.79h2.455v7.126c0 2.455.809 4.137 3.012 4.137 1.646 0 2.79-1.094 3.236-2.162.139-.32.223-.747.223-1.2v-7.9h2.455v9.367zm7.031-12.464v3.096h3.516v1.789h-3.516v6.938c0 1.602.475 2.51 1.842 2.51.669 0 1.06-.055 1.422-.16l.112 1.787c-.474.16-1.227.32-2.176.32-1.144 0-2.064-.373-2.65-.987-.67-.721-.948-1.868-.948-3.39v-7.018h-2.092v-1.789h2.092v-2.375l2.398-.72zm6.277 16.013V32.79h2.455v12.917h-2.455zm1.172-15.105c-.892 0-1.478-.667-1.478-1.441 0-.828.614-1.468 1.534-1.468.892 0 1.507.64 1.507 1.468 0 .774-.587 1.441-1.535 1.441h-.028zm10.965 13.637c2.343 0 4.1-2.108 4.1-5.044 0-2.188-1.143-4.937-4.044-4.937-2.874 0-4.129 2.562-4.129 5.018 0 2.828 1.674 4.963 4.045 4.963h.028zM172.804 46c-3.626 0-6.472-2.562-6.472-6.645 0-4.324 2.985-6.86 6.695-6.86 3.878 0 6.5 2.696 6.5 6.62 0 4.804-3.487 6.885-6.695 6.885h-.028zm9.819-9.714c0-1.361-.028-2.429-.111-3.497h2.176l.139 2.109h.056c.669-1.201 2.232-2.402 4.463-2.402 1.869 0 4.77 1.067 4.77 5.498v7.712h-2.454V38.26c0-2.08-.81-3.842-3.125-3.842-1.59 0-2.845 1.094-3.292 2.401-.111.294-.167.72-.167 1.094v7.793h-2.455v-9.42zm15.15 7.018c.754.427 2.037.908 3.264.908 1.758 0 2.594-.828 2.594-1.922 0-1.12-.697-1.708-2.482-2.349-2.455-.853-3.599-2.135-3.599-3.655 0-2.083 1.785-3.79 4.658-3.79 1.368 0 2.567.347 3.292.8l-.585 1.682c-.531-.294-1.507-.747-2.762-.747-1.451 0-2.232.8-2.232 1.761 0 1.067.781 1.548 2.539 2.215 2.315.827 3.543 1.949 3.543 3.87 0 2.295-1.87 3.896-5.022 3.896-1.478 0-2.845-.373-3.793-.907l.585-1.762z" fill="#7B7979"/><path d="M96.028 24.53c-3.308 0-6.419-1.234-8.76-3.474-2.342-2.24-3.631-5.217-3.631-8.381 0-3.165 1.29-6.141 3.63-8.382l3.65-3.491c1.118-1.07 2.93-1.07 4.048 0a2.656 2.656 0 010 3.873l-3.65 3.491c-1.26 1.206-1.954 2.807-1.954 4.509 0 1.702.694 3.303 1.954 4.508a6.776 6.776 0 004.713 1.87 6.775 6.775 0 004.712-1.87l7.342-7.024c1.118-1.07 2.93-1.07 4.048 0a2.655 2.655 0 010 3.873l-7.342 7.024c-2.342 2.24-5.452 3.474-8.76 3.474z" fill="#1F2E76"/><path d="M113.07 24.887a2.923 2.923 0 01-2.024-.801 2.657 2.657 0 010-3.873l3.65-3.492c2.599-2.486 2.599-6.531 0-9.017-2.598-2.486-6.826-2.486-9.425 0l-7.342 7.025c-1.118 1.069-2.93 1.069-4.048 0a2.655 2.655 0 010-3.873l7.342-7.024c4.831-4.621 12.691-4.622 17.521 0 4.83 4.62 4.83 12.14 0 16.762l-3.65 3.492a2.92 2.92 0 01-2.024.802z" fill="#7B7979"/></g><defs><clipPath id="clip0_1309_148"><path fill="#fff" d="M0 0h206v46H0z"/></clipPath></defs></svg>
